X:1
T:Stand by the Bible
T:Stand by the Bible
T:Franklin Edson Belden
T:Franklin Edson Belden, 1894
T:Public Domain Courtesy of the Cyber Hymnal™
T:Public Domain Courtesy of the Cyber Hymnal™
C:Franklin Edson Belden
Z:Public Domain
Z:Courtesy of the Cyber Hymnal™
%%score ( 1 2 ) ( 3 4 )
L:1/8
Q:1/4=95
M:9/8
K:Eb
V:1 treble 
V:2 treble 
V:3 bass 
V:4 bass 
V:1
 [EG] | [EG][EF]E [EA]3 [EG]2 [EG] | [B,F][B,E][B,D] [B,E]3- [B,E]2 [B,E] | %3
w: 1.~We’ll|stand by the Bi- ble, God’s|mes- sage to man, * Re-|
w: 2.~No|book so a- bound- ing in|won- der- ful truth, * No|
w: 3.~Through|ag- es when faith spurned the|fet- ters of might, * It|
w: 4.~We’ll|fol- low thy teach- ings, blest|word from a- bove, * We’ll|
 [CE][B,D][A,C] [G,B,]3 [B,E]2 [B,F] | [EG][EF]E [DF]3- [DF]2 B, | B,[B,E][B,F] [EG]3 E2 E | %6
w: veal- ing His love in Re-|demp- tion’s great plan; * It|tells how death en- tered with|
w: guide so un- err- ing for|child- hood and youth, * No|coun- sel so need- ed by|
w: shone like a star on the|bo- som of night; * Its|word was the rule of the|
w: live by thy pat- tern of|in- fin- ite love, * Be-|liev- ing, o- bey- ing, and|
 E[EF][EG] [EA]3- [EA]2 [EA] | [Ec][DB][CA] [B,G]3 [B,E]2 [B,E] | %8
w: sin and the fall, * Of|life free- ly of- fered through|
w: man in his bloom, * No|com- fort so sweet on the|
w: mil- lions who bled, * Its|hope was their stay when the|
w: watch- ing with prayer, * Till|grace shall for Heav- en our|
 [B,F][B,E][B,D] [B,E]3- [B,E]2 z |:"^Refrain" [GB][EG][FA] [GB]3 [EG]2 z | %10
w: Je- sus to all. *||
w: verge of the tomb. *|Stand by the Bi- ble,|
w: last prayer was said. *|Stand by the Bi- ble,|
w: spir- its pre- pare. *||
 [FA][DF][EG] [FA]3 [DF]2 z |1 [EG][FA][GB] [Ac]3 [GB]2 [GB] | [F=A][FG][FA] [FB]3- [FB]2 z :|2 %13
w: |||
w: walk by the Bi- ble,|Teach by the Bi- ble, re-|veal- ing God’s plan; *|
w: stu- dy the Bi- ble,|Live by the Bi- ble, ~|~ ~ ~ ~ *|
w: |||
 [FA] || [EG][EG][DF] E3- E2 |] %15
w: ||
w: ||
w: God’s|mes- sage to man. *|
w: ||
V:2
 x | x2 E x6 | x9 | x9 | x2 E x4 B, x | B, x4 E2 E x | E x8 | x9 | x9 |: x9 | x9 |1 x9 | x9 :|2 %13
 x || x3 E3- E2 |] %15
V:3
 [E,B,] | [E,B,][E,A,][E,G,] [E,C]3 [E,B,]2 [E,B,] | %2
 [B,,A,][B,,G,][B,,F,] [E,G,]3- [E,G,]2 [E,G,] | [A,,A,][A,,A,][A,,E,] E,3 [E,G,]2 [E,A,] | %4
 [E,B,][E,A,][E,G,] [B,,B,]3- [B,,B,]2 [E,G,] | [E,G,][E,G,][E,A,] [E,B,]3 [E,G,]2 [E,G,] | %6
 [E,G,][E,A,][E,B,] [A,,C]3- [A,,C]2 [A,,C] | [A,,A,][A,,A,][A,,A,] [B,,E,]3 [B,,G,]2 [B,,G,] | %8
 [B,,A,][B,,G,][B,,F,] [E,G,]3- [E,G,]2 z |: [E,E][E,B,][E,B,] [E,E]3 [E,B,]2 z | %10
 [B,,B,][B,,B,][B,,B,] [B,,B,]3 [B,,B,]2 z |1 [E,B,][E,B,][E,E] [E,E]3 [E,E]2 [E,E] | %12
 [F,C][F,B,][F,C] [B,,D]3- [B,,D]2 z :|2 [A,,C] || [B,,B,][B,,B,][B,,A,] [E,G,]3- [E,G,]2 |] %15
V:4
 x | x9 | x9 | x3 E,3 x3 | x9 | x9 | x9 | x9 | x9 |: x9 | x9 |1 x9 | x9 :|2 x || x8 |] %15

